COLOR/action 16/16/mail-drafts.svg

<svg height="16" width="16" xmlns="http://www.w3.org/2000/svg"><path d="m4.8550578.49995647c-3.04166 0-3.36894.30899-3.35403 3.32331003v4.17669 4.1766805c-.0149 3.014329.31237 3.323319 3.35403 3.323319h6.2914602c3.04167 0 3.35404-.30895 3.35404-3.323319v-4.1766805-4.17669c0-3.01436003-.31238-3.32331003-3.35404-3.32331003z" fill="#fee581"/><path d="m4.8560278.49994647c-3.04166 0-3.37038.3099-3.35547 3.32422003v.17578h13.0000002v-.17578c0-3.01436003-.31187-3.32422003-3.35352-3.32422003z" fill="#fdc92b"/><path d="m4.0005578 5.9999465v1h8.0000002v-1zm0 2v1h8.0000002v-1zm0 2.0000001v1.0000004h4v-1.0000004z" fill="#1463a5"/><path d="m1.5019531 11.675781v.5c-.0149 3.014329.3118557 3.324219 3.3535157 3.324219h6.2910152c3.04167 0 3.353516-.30985 3.353516-3.324219v-.5c0 3.014369-.311846 3.324219-3.353516 3.324219h-6.2910152c-3.04166 0-3.3684157-.30989-3.3535157-3.324219z" opacity=".2"/><path d="m4.8554688.5c-3.04166 0-3.3684257.30989872-3.3535157 3.3242188v.5c-.01491-3.01432.3118557-3.3242188 3.3535157-3.3242188h6.2910152c3.04166 0 3.353516.3098588 3.353516 3.3242188v-.5c0-3.01436008-.311856-3.3242188-3.353516-3.3242188z" fill="#fff" opacity=".3"/></svg>

<?xml version="1.0" encoding="UTF-8" standalone="no"?>
<svg
   xmlns:osb="http://www.openswatchbook.org/uri/2009/osb"
   xmlns:dc="http://purl.org/dc/elements/1.1/"
   xmlns:cc="http://creativecommons.org/ns#"
   xmlns:rdf="http://www.w3.org/1999/02/22-rdf-syntax-ns#"
   xmlns:svg="http://www.w3.org/2000/svg"
   xmlns="http://www.w3.org/2000/svg"
   xmlns:xlink="http://www.w3.org/1999/xlink"
   xmlns:sodipodi="http://sodipodi.sourceforge.net/DTD/sodipodi-0.dtd"
   xmlns:inkscape="http://www.inkscape.org/namespaces/inkscape"
   height="16"
   id="svg7384"
   version="1.1"
   width="16"
   sodipodi:docname="notes-app.svg"
   inkscape:version="0.92.4 (5da689c313, 2019-01-14)">
  <sodipodi:namedview
     pagecolor="#ffffff"
     bordercolor="#666666"
     borderopacity="1"
     objecttolerance="10"
     gridtolerance="10"
     guidetolerance="10"
     inkscape:pageopacity="0"
     inkscape:pageshadow="2"
     inkscape:window-width="1920"
     inkscape:window-height="1016"
     id="namedview26"
     showgrid="false"
     inkscape:zoom="55.933296"
     inkscape:cx="4.4698426"
     inkscape:cy="10.145462"
     inkscape:window-x="0"
     inkscape:window-y="27"
     inkscape:window-maximized="1"
     inkscape:current-layer="svg7384" />
  <metadata
     id="metadata20854">
    <rdf:RDF>
      <cc:Work
         rdf:about="">
        <dc:title />
        <dc:format>image/svg+xml</dc:format>
        <dc:type
           rdf:resource="http://purl.org/dc/dcmitype/StillImage" />
      </cc:Work>
    </rdf:RDF>
  </metadata>
  <defs
     id="defs7386">
    <linearGradient
       id="linearGradient5606"
       osb:paint="solid">
      <stop
         id="stop5608"
         offset="0"
         style="stop-color:#000000;stop-opacity:1;" />
    </linearGradient>
    <linearGradient
       id="linearGradient4526"
       osb:paint="solid">
      <stop
         id="stop4528"
         offset="0"
         style="stop-color:#ffffff;stop-opacity:1;" />
    </linearGradient>
    <linearGradient
       id="linearGradient3600-4"
       osb:paint="gradient">
      <stop
         id="stop3602-7"
         offset="0"
         style="stop-color:#f4f4f4;stop-opacity:1" />
      <stop
         id="stop3604-6"
         offset="1"
         style="stop-color:#dbdbdb;stop-opacity:1" />
    </linearGradient>
    <clipPath
       clipPathUnits="userSpaceOnUse"
       id="clipPath983">
      <path
         sodipodi:nodetypes="scccssscsss"
         inkscape:connector-curvature="0"
         id="path985"
         d="m 325.09646,237 c -2.80769,0 -3.10979,0.28839 -3.09603,3.10176 V 244 v 3.89824 c -0.0138,2.81337 0.28834,3.10176 3.09603,3.10176 h 5.8075 C 333.71166,251 334,250.71165 334,247.89824 V 244 240.10176 C 334,237.28836 333.71165,237 330.90396,237 Z"
         style="color:#000000;display:inline;overflow:visible;visibility:visible;opacity:1;fill:#46a926;fill-opacity:1;fill-rule:nonzero;stroke:none;stroke-width:2;stroke-miterlimit:4;stroke-dasharray:none;stroke-opacity:1;marker:none;enable-background:accumulate" />
    </clipPath>
    <clipPath
       clipPathUnits="userSpaceOnUse"
       id="clipPath983-3">
      <path
         sodipodi:nodetypes="scccssscsss"
         inkscape:connector-curvature="0"
         id="path985-6"
         d="m 325.09646,237 c -2.80769,0 -3.10979,0.28839 -3.09603,3.10176 V 244 v 3.89824 c -0.0138,2.81337 0.28834,3.10176 3.09603,3.10176 h 5.8075 C 333.71166,251 334,250.71165 334,247.89824 V 244 240.10176 C 334,237.28836 333.71165,237 330.90396,237 Z"
         style="color:#000000;display:inline;overflow:visible;visibility:visible;opacity:1;fill:#46a926;fill-opacity:1;fill-rule:nonzero;stroke:none;stroke-width:2;stroke-miterlimit:4;stroke-dasharray:none;stroke-opacity:1;marker:none;enable-background:accumulate" />
    </clipPath>
    <linearGradient
       inkscape:collect="always"
       id="linearGradient4221">
      <stop
         style="stop-color:#fee581;stop-opacity:1"
         offset="0"
         id="stop4223" />
      <stop
         style="stop-color:#fff4c9;stop-opacity:1"
         offset="1"
         id="stop4225" />
    </linearGradient>
    <linearGradient
       inkscape:collect="always"
       xlink:href="#linearGradient4221"
       id="linearGradient853"
       gradientUnits="userSpaceOnUse"
       gradientTransform="matrix(0,-0.0386186,0.03904659,0,-4.5279422,17.545406)"
       x1="441.37933"
       y1="240.28154"
       x2="52.9655"
       y2="401.42957" />
  </defs>
  <path
     style="color:#000000;display:inline;overflow:visible;visibility:visible;fill:#fee581;fill-opacity:1;fill-rule:nonzero;stroke:none;stroke-width:1;marker:none;enable-background:accumulate"
     d="m 4.8550578,0.49995647 c -3.04166,0 -3.36894,0.30899 -3.35403,3.32331003 v 4.17669 4.1766805 c -0.0149,3.014329 0.31237,3.323319 3.35403,3.323319 h 6.2914602 c 3.04167,0 3.35404,-0.30895 3.35404,-3.323319 v -4.1766805 -4.17669 c 0,-3.01436003 -0.31238,-3.32331003 -3.35404,-3.32331003 z"
     id="path918"
     inkscape:connector-curvature="0"
     sodipodi:nodetypes="scccssscsss" />
  <path
     inkscape:connector-curvature="0"
     style="display:inline;opacity:1;fill:#fdc92b;fill-opacity:1;stroke:none;stroke-width:2.61861467;stroke-linecap:round;stroke-linejoin:round;stroke-miterlimit:4;stroke-dasharray:none;stroke-dashoffset:0;stroke-opacity:1;enable-background:new"
     d="m 4.8560278,0.49994647 c -3.04166,0 -3.37038,0.3099 -3.35547,3.32422003 v 0.17578 H 14.500558 v -0.17578 c 0,-3.01436003 -0.31187,-3.32422003 -3.35352,-3.32422003 z"
     id="path923" />
  <path
     sodipodi:nodetypes="ccccccccccccccc"
     inkscape:connector-curvature="0"
     id="path1028"
     d="m 4.0005578,5.9999465 v 1 h 8.0000002 v -1 z m 0,2 v 1 h 8.0000002 v -1 z m 0,2.0000001 v 1.0000004 h 4 V 9.9999466 Z"
     style="color:#000000;display:inline;overflow:visible;visibility:visible;opacity:1;fill:#1463a5;fill-opacity:1;fill-rule:nonzero;stroke:none;stroke-width:3;stroke-linecap:butt;stroke-linejoin:miter;stroke-miterlimit:4;stroke-dasharray:none;stroke-dashoffset:0;stroke-opacity:1;marker:none;enable-background:accumulate" />
  <path
     style="color:#000000;display:inline;overflow:visible;visibility:visible;fill:#000000;fill-opacity:1;fill-rule:nonzero;stroke:none;stroke-width:1;marker:none;enable-background:accumulate;opacity:0.2"
     d="M 1.5019531 11.675781 L 1.5019531 12.175781 C 1.4870531 15.19011 1.8138088 15.5 4.8554688 15.5 L 11.146484 15.5 C 14.188154 15.5 14.5 15.19015 14.5 12.175781 L 14.5 11.675781 C 14.5 14.69015 14.188154 15 11.146484 15 L 4.8554688 15 C 1.8138088 15 1.4870531 14.69011 1.5019531 11.675781 z "
     id="path838" />
  <path
     style="color:#000000;display:inline;overflow:visible;visibility:visible;fill:#ffffff;fill-opacity:1;fill-rule:nonzero;stroke:none;stroke-width:1;marker:none;enable-background:accumulate;opacity:0.3"
     d="M 4.8554688 0.5 C 1.8138088 0.5 1.4870431 0.80989872 1.5019531 3.8242188 L 1.5019531 4.3242188 C 1.4870431 1.3098988 1.8138088 1 4.8554688 1 L 11.146484 1 C 14.188144 1 14.5 1.3098588 14.5 4.3242188 L 14.5 3.8242188 C 14.5 0.80985872 14.188144 0.5 11.146484 0.5 L 4.8554688 0.5 z "
     id="path842" />
</svg>
